X:1
T:Irs gleichen lebt
T:Jacob Regnart
T:Source : Leipzig---Breitkopf & Härtel---R.Eitner--1895. First publication : Deutsche Lieder mit  3 Stimmen---Nürnberg---D.Gerlach---1579. Editor : André Vierendeels (23/10/17).
T:Notes : Original clefs : C1, C2, C4 Editorial accidentals above the staff 
T:Irs gleichen lebt
T:©
T:©
C:Jacob Regnart
Z:©
%%score [ 1 2 3 ]
L:1/8
Q:1/4=120
M:2/2
K:C
V:1 treble nm="Soprano 1" snm="S 1"
V:2 treble nm="Soprano 2" snm="S 2"
V:3 treble-8 nm="Tenor" snm="T"
V:1
"^1)" G4 G2 G2 | A2 B2 G2 G2 | A4 d4 | c2 B2 A2 G2 |1 A2 A2 B4 :|2 A2 A2 B4 |: z4 z2 G2 | c4 A4 | %8
w: Irs glei- chen|lebt auff Er- den|nicht, der|ich mich hab mit|Lieb ver- pflicht,|Lieb ver- pflicht;|mit|Ehrn und|
w: Irs glei- chen|ist noch nicht ge-|born, so|ich mir jetzt hab|ausz- er- korn,|ausz er- lorn,|Gotts-|förch- tig|
 B4 z2 G2 | c4 A4 | B4 z2 G2 | c6 B2 | e2 d2 c4 |[M:2/4] B4 :: z2 G2 |[M:2/2] G4 c2 c2- | %16
w: Zucht, die|e- del|Frucht, ist|sie ge-|krönt auff Er-|den,|die|mir, hoff ich,|
w: frumm, in|ei- ner|summ, thut|sie Gott|hoch be- ga-|ben,|und|für an- der|
 c2 B2 A4 |[M:2/4] !fermata!B4 :| %18
w: _ soll wer-|den.|
w: _ ha- *|ben|
V:2
"^2)""^1)" E4 E2 E2 | F2 G2 E2 G2 | ^F4 z2 G2 | G2 G2 ^F2 G2 |1 G2 ^F2 G4 :|2 G2 ^F2 G2 D2 |: %6
w: Irs glei- chen|lebt auff Er- den|nicht, der|ich mich hab mit|Lieb ver- pflicht,|Lieb ver- pflicht, mit|
w: Irs glei- chen|wird nit mehr auff|Erdt, sie|ist alls lobs und|Eh- ren werdt,|Eh- ren werdt, bisz|
 G4 E4 | A4 z2 D2 | G4 E4 | A4 z2 D2 | G3 F EDEF | G2 A2 G2 E2- |"^#" EF G4 F2 |[M:2/4] G4 :: %14
w: Ehrn und|Zucht, die|e- del|Frucht, ist|sie _ _ _ _ _|_ ge- krönt auff|_ _ _ Er-|den,|
w: in mein|Grab lasz|ich nit|ab, sie|lo- * ben, _ _ _|_ prei- sen und|_ _ Eh- *|ren;|
 z2 E2 |[M:2/2] E4 E2 A2- | A2 G2 ^F4 |[M:2/4] !fermata!G4 :| %18
w: die|mir, hoff ich,|_ soll wer-|den.|
w: kein|Mensch soll mirs|_ nit weh-|ren.|
V:3
"^3)""^1)""^4)" c4 c2 c2 | A2 G2 c2 e2 | d4 B4 | c2 G2 d2 e2 |1 d2 d2 G4 :|2 d2 d2 G4 |: z2 G2 c4 | %7
w: Irs glei- chen|lebt auff Er- den|nicht, der|ich mich hab mit|Lieb ver- pflicht,|Lieb ver- pflicht,|mit Ehrn|
w: Irs glei- chen,|sag ich noch ein|mal, lindt|ich we- der zu|Berg noch Thal;|Berg noch Thal;|wünsch mir|
 A4 d4 | z2 G2 c4 | A4 d4 | z2 G2 c3 d | e2 f2 e3 d | c2 B2 A4 |[M:2/4] G4 :: z2 c2 | %15
w: und Zucht,|die _|del Frucht,|ist sie _|_ ge- krönt _|_ auff Er-|den,|die|
w: nicht mehr,|noch nichts|be- ger,|dann nur, _|_ das ich _|_ merck e-|ben,|bei|
[M:2/2] c4 A4 | F2 G2 D4 |[M:2/4] !fermata!G4 :| %18
w: mir, hoff|ich, soll wer-|den.|
w: ihr in|Ehrn solt le-|ben.|

